icons/1_Primary/Lark.svg

<svg width="1024" height="1024" viewBox="0 0 1024 1024" fill="none" xmlns="http://www.w3.org/2000/svg">
<g clip-path="url(#clip0_2_2652)">
<path d="M512 1024C794.77 1024 1024 794.77 1024 512C1024 229.23 794.77 0 512 0C229.23 0 0 229.23 0 512C0 794.77 229.23 1024 512 1024Z" fill="#728DBE"/>
<path d="M452.66 735.98C581.87 735.93 693.62 662.36 748.67 554.49C720.2 609.85 659.74 636.12 599.61 621.37C564.96 612.48 531.12 600.33 498.18 586.42C409.66 548.37 329.47 492.29 263.68 421.89C261.03 418.97 255.73 420.94 255.81 424.99L255.95 638.28V655.59C255.95 665.65 260.91 675.03 269.25 680.62C323.533 716.878 387.382 736.153 452.66 735.99V735.97V735.98ZM542.62 513.8L542.54 513.88C493.545 428.532 427.234 354.38 347.87 296.19C347.102 295.619 346.533 294.821 346.244 293.908C345.955 292.996 345.961 292.015 346.261 291.107C346.561 290.198 347.14 289.406 347.915 288.845C348.691 288.284 349.623 287.981 350.58 287.98H592.25C601.38 287.98 610.03 292.11 615.77 299.22C643.041 333.233 663.316 372.302 675.43 414.18C644.86 423.65 616.92 440.14 594.62 462.46C586.97 469.98 579.03 477.84 571.35 485.46C562.75 493.99 553.85 502.81 545.3 511.18L545.23 511.25L545.16 511.32C544.33 512.16 543.48 512.99 542.62 513.8ZM487.32 569.47C509.5 556.46 530.11 540.9 548.79 523.19L550.17 521.81C551.13 520.91 552.07 519.98 553 519.04C569.22 503.15 586.15 486.2 602.36 470.28C655.44 417.12 739.31 401.4 808.19 430.18L800.67 438.92C788.52 453.03 778.37 468.86 770.51 485.96L764.21 498.52C756.2 514.49 739.53 547.71 738.63 549.44C729.89 565.92 718.23 579.99 704.89 590.12L704.76 590.22C702.91 591.67 700.92 593.03 698.8 594.48C680.22 607.18 656.76 614.18 632.73 614.18C625.2 614.18 617.64 613.5 610.26 612.16C607.54 611.62 604.97 611.12 602.41 610.5C580.22 604.75 557.16 597.39 533.87 588.62C523.11 584.57 511.66 579.94 499.81 574.86L487.31 569.48L487.32 569.47Z" fill="white"/>
</g>
<defs>
<clipPath id="clip0_2_2652">
<rect width="1024" height="1024" fill="white"/>
</clipPath>
</defs>
</svg>

<svg xmlns="http://www.w3.org/2000/svg" width="1024" height="1024" fill="none">
   <g clip-path="url(#a)">
      <path fill="#728DBE" d="M512 1024c282.77 0 512-229.23 512-512S794.77 0 512 0 0 229.23 0 512s229.23 512 512 512Z"/>
      <path fill="#fff" d="M452.66 735.98c129.21-.05 240.96-73.62 296.01-181.49-28.47 55.36-88.93 81.63-149.06 66.88-34.65-8.89-68.49-21.04-101.43-34.95-88.52-38.05-168.71-94.13-234.5-164.53-2.65-2.92-7.95-.95-7.87 3.1l.14 213.29v17.31c0 10.06 4.96 19.44 13.3 25.03a328.732 328.732 0 0 0 183.41 55.37v-.02.01Zm89.96-222.18-.08.08a705.423 705.423 0 0 0-194.67-217.69 4.557 4.557 0 0 1 .045-7.345 4.557 4.557 0 0 1 2.665-.865h241.67c9.13 0 17.78 4.13 23.52 11.24a330.66 330.66 0 0 1 59.66 114.96c-30.57 9.47-58.51 25.96-80.81 48.28-7.65 7.52-15.59 15.38-23.27 23-8.6 8.53-17.5 17.35-26.05 25.72l-.07.07-.07.07c-.83.84-1.68 1.67-2.54 2.48Zm-55.3 55.67c22.18-13.01 42.79-28.57 61.47-46.28l1.38-1.38c.96-.9 1.9-1.83 2.83-2.77 16.22-15.89 33.15-32.84 49.36-48.76 53.08-53.16 136.95-68.88 205.83-40.1l-7.52 8.74c-12.15 14.11-22.3 29.94-30.16 47.04l-6.3 12.56c-8.01 15.97-24.68 49.19-25.58 50.92-8.74 16.48-20.4 30.55-33.74 40.68l-.13.1c-1.85 1.45-3.84 2.81-5.96 4.26-18.58 12.7-42.04 19.7-66.07 19.7-7.53 0-15.09-.68-22.47-2.02-2.72-.54-5.29-1.04-7.85-1.66-22.19-5.75-45.25-13.11-68.54-21.88-10.76-4.05-22.21-8.68-34.06-13.76l-12.5-5.38.01-.01Z"/>
   </g>
   <defs>
      <clipPath id="a">
         <path fill="#fff" d="M0 0h1024v1024H0z"/>
      </clipPath>
   </defs>
</svg>
